svg/device/fridge_fill.svg

<?xml version="1.0" encoding="UTF-8"?>
<svg width="24px" height="24px" viewBox="0 0 24 24" version="1.1" xmlns="http://www.w3.org/2000/svg" xmlns:xlink="http://www.w3.org/1999/xlink">
    <title>fridge_fill</title>
    <g id="页面-1" stroke="none" stroke-width="1" fill="none" fill-rule="evenodd">
        <g id="Device" transform="translate(-864.000000, -144.000000)">
            <g id="fridge_fill" transform="translate(864.000000, 144.000000)">
                 <path d="M24,0 L24,24 L0,24 L0,0 L24,0 Z M12.5934901,23.257841 L12.5819402,23.2595131 L12.5108777,23.2950439 L12.4918791,23.2987469 L12.4918791,23.2987469 L12.4767152,23.2950439 L12.4056548,23.2595131 C12.3958229,23.2563662 12.3870493,23.2590235 12.3821421,23.2649074 L12.3780323,23.275831 L12.360941,23.7031097 L12.3658947,23.7234994 L12.3769048,23.7357139 L12.4804777,23.8096931 L12.4953491,23.8136134 L12.4953491,23.8136134 L12.5071152,23.8096931 L12.6106902,23.7357139 L12.6232938,23.7196733 L12.6232938,23.7196733 L12.6266527,23.7031097 L12.609561,23.275831 C12.6075724,23.2657013 12.6010112,23.2592993 12.5934901,23.257841 L12.5934901,23.257841 Z M12.8583906,23.1452862 L12.8445485,23.1473072 L12.6598443,23.2396597 L12.6498822,23.2499052 L12.6498822,23.2499052 L12.6471943,23.2611114 L12.6650943,23.6906389 L12.6699349,23.7034178 L12.6699349,23.7034178 L12.678386,23.7104931 L12.8793402,23.8032389 C12.8914285,23.8068999 12.9022333,23.8029875 12.9078286,23.7952264 L12.9118235,23.7811639 L12.8776777,23.1665331 C12.8752882,23.1545897 12.8674102,23.1470016 12.8583906,23.1452862 L12.8583906,23.1452862 Z M12.1430473,23.1473072 C12.1332178,23.1423925 12.1221763,23.1452606 12.1156365,23.1525954 L12.1099173,23.1665331 L12.0757714,23.7811639 C12.0751323,23.7926639 12.0828099,23.8018602 12.0926481,23.8045676 L12.108256,23.8032389 L12.3092106,23.7104931 L12.3186497,23.7024347 L12.3186497,23.7024347 L12.3225043,23.6906389 L12.340401,23.2611114 L12.337245,23.2485176 L12.337245,23.2485176 L12.3277531,23.2396597 L12.1430473,23.1473072 Z" id="MingCute" fill-rule="nonzero"></path>
                <path d="M19,13 L19,20 C19,21.0543909 18.18415,21.9181678 17.1492661,21.9945144 L17,22 L7,22 C5.94563773,22 5.08183483,21.18415 5.00548573,20.1492661 L5,20 L5,13 L19,13 Z M9,15 C8.48716857,15 8.06449347,15.386027 8.0067278,15.8833761 L8,16 L8,18 C8,18.5523 8.44772,19 9,19 C9.51283143,19 9.93550653,18.613973 9.9932722,18.1166239 L10,18 L10,16 C10,15.4477 9.55228,15 9,15 Z M17,2 C18.0543909,2 18.9181678,2.81587733 18.9945144,3.85073759 L19,4 L19,11 L5,11 L5,4 C5,2.94563773 5.81587733,2.08183483 6.85073759,2.00548573 L7,2 L17,2 Z M9,5 C8.44772,5 8,5.44772 8,6 L8,8 C8,8.55228 8.44772,9 9,9 C9.55228,9 10,8.55228 10,8 L10,6 C10,5.44772 9.55228,5 9,5 Z" id="形状" fill="#09244B"></path>
            </g>
        </g>
    </g>
</svg>

<svg xmlns="http://www.w3.org/2000/svg" width="24" height="24"><g fill="none" fill-rule="evenodd"><path d="M24 0v24H0V0h24ZM12.593 23.258l-.011.002-.071.035-.02.004-.014-.004-.071-.035c-.01-.004-.019-.001-.024.005l-.004.01-.017.428.005.02.01.013.104.074.015.004.012-.004.104-.074.012-.016.004-.017-.017-.427c-.002-.01-.009-.017-.017-.018Zm.265-.113-.013.002-.185.093-.01.01-.003.011.018.43.005.012.008.007.201.093c.012.004.023 0 .029-.008l.004-.014-.034-.614c-.003-.012-.01-.02-.02-.022Zm-.715.002a.023.023 0 0 0-.027.006l-.006.014-.034.614c0 .012.007.02.017.024l.015-.002.201-.093.01-.008.004-.011.017-.43-.003-.012-.01-.01-.184-.092Z"/><path fill="#09244B" d="M19 13v7a2 2 0 0 1-1.85 1.995L17 22H7a2 2 0 0 1-1.995-1.85L5 20v-7h14ZM9 15a1 1 0 0 0-.993.883L8 16v2a1 1 0 0 0 1.993.117L10 18v-2a1 1 0 0 0-1-1Zm8-13a2 2 0 0 1 1.995 1.85L19 4v7H5V4a2 2 0 0 1 1.85-1.995L7 2h10ZM9 5a1 1 0 0 0-1 1v2a1 1 0 0 0 2 0V6a1 1 0 0 0-1-1Z"/></g></svg>
